packages/katcn/src/icons/svg/fire-solid.svg

<svg width="24" height="24" viewBox="0 0 24 24" fill="none" xmlns="http://www.w3.org/2000/svg">
<path d="M20 14.5504C19.8 8.47073 16 3.93677 13.8 1.77283C12.8 0.742389 11.2 0.742389 10.2 1.77283C8 3.93677 4.2 8.47073 4 14.4473C4 14.5504 4 14.7564 4 14.8595C4 19.2904 7.6 23 12 23C16.4 23 20 19.3934 20 14.8595C20 14.7564 20 14.6534 20 14.5504ZM8.3 17.8478C8.3 17.7447 8.3 17.7447 8.3 17.6417C8.4 14.9625 10.1 12.9016 11.1 11.8712C11.6 11.356 12.4 11.356 12.9 11.8712C13.9 12.9016 15.6 14.8595 15.7 17.6417C15.7 17.6417 15.7 17.7447 15.7 17.8478C15.7 18.9813 15.2 20.0117 14.4 20.63C13.8 21.2482 12.9 21.6604 12 21.6604C11.1 21.6604 10.2 21.3513 9.6 20.733C8.8 20.0117 8.3 18.9813 8.3 17.8478Z" fill="black"/>
</svg>

<svg xmlns="http://www.w3.org/2000/svg" fill="none" viewBox="0 0 24 24"><path fill="#000" d="M20 14.55c-.2-6.08-4-10.613-6.2-12.777-1-1.03-2.6-1.03-3.6 0C8 3.937 4.2 8.47 4 14.447v.413C4 19.29 7.6 23 12 23s8-3.607 8-8.14zM8.3 17.848v-.206c.1-2.68 1.8-4.74 2.8-5.77a1.24 1.24 0 0 1 1.8 0c1 1.03 2.7 2.988 2.8 5.77v.206c0 1.133-.5 2.164-1.3 2.782-.6.618-1.5 1.03-2.4 1.03s-1.8-.309-2.4-.927a3.88 3.88 0 0 1-1.3-2.885"/></svg>
